X:472
%%etbk:tnset id:191,pos:1,rep:3,ant:
T: Dirty Old Town
H: Created 2013-03-06 /  Modified 2013-03-06
R: song
M: 4/4
L: 1/8
K: Dmaj
|:z2 !1!A,2 !3!D2 !4!E2 | "D"!5!F8 | -F2 !3!DE !5!F2!3!D2| !1!A,8 | -A,4 !3!F2 !4!A2 | "G"!5!B8 | -B2 !4!A!3!F !2!E2 !1!D2 | "D"!3!F8 | -F2 !4!A2B2A2 | 
"D"!3!5!!F8 | -F2 !3!DE !5!F2 !3!D2 | !1!A,4 -A,4| -A,4  !2!B,!3!D !5!F2 | "A"!4!E8 | -E4 !4!E!3!D !2!B,2 | "bm"!2!B,4 -B,4:|


